X:54
T:Lady Arnold's Mantra
R:reel
C: 1987, 2010 L.E. McCullough 
M:4/4
L:1/8
K:G
ge|:d~B3 ABGA|B~G3 Bded|e~g3 ageg|d~B3 A2ge|
d~B3 ABGA|B~G3 Bded|e~g3 ageg|1 edBA G2ge:|2 edBA G2GA|]
|:B~G3 ~B3d|e~B3 ~g3d|e~g3 edBA|GABG A2ge|d~B3 ABGA|
B~G3 Bded|e~g3 agbg|1 edBA G2GA:|2 edBA G2ge|]


